app/images/icons/facebook.svg

<?xml version="1.0" encoding="UTF-8" standalone="no"?>
<svg width="54px" height="54px" viewBox="0 0 54 54" version="1.1" xmlns="http://www.w3.org/2000/svg" xmlns:xlink="http://www.w3.org/1999/xlink">
    <!-- Generator: Sketch 47.1 (45422) - http://www.bohemiancoding.com/sketch -->
    <title>Facebook</title>
    <desc>Created with Sketch.</desc>
    <defs>
        <path d="M1215,671 L1249,671 C1250.10457,671 1251,671.895431 1251,673 L1251,707 C1251,708.104569 1250.10457,709 1249,709 L1215,709 C1213.89543,709 1213,708.104569 1213,707 L1213,673 L1213,673 C1213,671.895431 1213.89543,671 1215,671 L1215,671 Z M1229.09342,701.953263 L1233.96981,701.953263 L1233.96981,691.593684 L1237.46512,691.593684 L1237.95191,686.900678 L1233.89908,686.900678 C1233.89908,686.900678 1233.89908,685.359719 1233.89908,683.98545 C1233.89908,682.608234 1235.0821,682.608234 1235.0821,682.608234 L1237.88398,682.608234 L1237.88398,678 L1233.367,678 C1229.30851,678.038035 1229.16415,682.932772 1229.16415,682.932772 L1229.16415,686.81876 L1226,686.81876 L1226,691.514667 L1229.09342,691.514667 L1229.09342,701.953263 Z" id="path-1"></path>
        <filter x="-31.6%" y="-31.6%" width="163.2%" height="163.2%" filterUnits="objectBoundingBox" id="filter-2">
            <feOffset dx="0" dy="0" in="SourceAlpha" result="shadowOffsetOuter1"></feOffset>
            <feGaussianBlur stdDeviation="4" in="shadowOffsetOuter1" result="shadowBlurOuter1"></feGaussianBlur>
            <feColorMatrix values="0 0 0 0 0   0 0 0 0 0.768627451   0 0 0 0 1  0 0 0 0.5 0" type="matrix" in="shadowBlurOuter1"></feColorMatrix>
        </filter>
    </defs>
    <g id="Design" stroke="none" stroke-width="1" fill="none" fill-rule="evenodd">
        <g id="Drimz2-fix" transform="translate(-1205.000000, -663.000000)">
            <g id="Facebook">
                <use fill="black" fill-opacity="1" filter="url(#filter-2)" xlink:href="#path-1"></use>
                <use fill="#FFFFFF" fill-rule="evenodd" xlink:href="#path-1"></use>
            </g>
        </g>
    </g>
</svg>

<svg width="54" height="54" xmlns="http://www.w3.org/2000/svg" xmlns:xlink="http://www.w3.org/1999/xlink"><defs><path d="M1215 671h34a2 2 0 0 1 2 2v34a2 2 0 0 1-2 2h-34a2 2 0 0 1-2-2v-34a2 2 0 0 1 2-2zm14.093 30.953h4.877v-10.36h3.495l.487-4.692h-4.053v-2.916c0-1.377 1.183-1.377 1.183-1.377h2.802V678h-4.517c-4.058.038-4.203 4.933-4.203 4.933v3.886H1226v4.696h3.093v10.438z" id="b"/><filter x="-31.6%" y="-31.6%" width="163.2%" height="163.2%" filterUnits="objectBoundingBox" id="a"><feOffset in="SourceAlpha" result="shadowOffsetOuter1"/><feGaussianBlur stdDeviation="4" in="shadowOffsetOuter1" result="shadowBlurOuter1"/><feColorMatrix values="0 0 0 0 0 0 0 0 0 0.768627451 0 0 0 0 1 0 0 0 0.5 0" in="shadowBlurOuter1"/></filter></defs><g transform="translate(-1205 -663)" fill="none" fill-rule="evenodd"><use fill="#000" filter="url(#a)" xlink:href="#b"/><use fill="#FFF" xlink:href="#b"/></g></svg>
